source/img/icons/viber-icon-mono.svg

<svg width="48" height="48" viewBox="0 0 48 48" xmlns="http://www.w3.org/2000/svg">
<path fill-rule="evenodd" clip-rule="evenodd" d="M24 0C37.2548 0 48 10.7452 48 24C48 37.2548 37.2548 48 24 48C10.7452 48 0 37.2548 0 24C0 10.7452 10.7452 0 24 0ZM30.3941 20.9584C30.2774 20.0101 29.9859 19.2655 29.4683 18.6059C28.7961 17.7566 27.9372 17.2481 26.6655 16.9464C25.8368 16.7453 25.5019 16.7684 25.2022 17.0422C24.923 17.2987 24.8685 17.813 25.0818 18.146C25.2319 18.3877 25.405 18.4743 25.8864 18.5688C26.5275 18.6867 26.9706 18.8398 27.3736 19.0702C28.229 19.5642 28.6274 20.3371 28.6701 21.5885C28.69 22.176 28.7408 22.3566 28.946 22.565C29.3263 22.946 30.0032 22.8719 30.2904 22.416C30.3957 22.2442 30.4118 22.1694 30.4229 21.7705C30.4303 21.5235 30.4197 21.1558 30.3941 20.9584ZM30.4055 15.1402C32.4393 16.7848 33.5757 19.1223 33.7446 22.0277C33.8157 23.172 33.7213 23.5447 33.3176 23.757C32.9533 23.9537 32.5405 23.8889 32.2573 23.5928C32.0697 23.4002 31.9977 23.1367 32.0005 22.6703C32.0087 21.3805 31.7116 19.9402 31.2284 18.9407C30.6693 17.7775 29.8049 16.7876 28.7176 16.0639C27.7652 15.4282 26.5047 14.9989 25.2826 14.892C24.4898 14.8226 24.2068 14.6883 24.0546 14.3083C23.9603 14.081 23.9852 13.688 24.0958 13.512C24.2002 13.3496 24.4347 13.1702 24.6005 13.1227C24.7762 13.0715 25.8001 13.161 26.3563 13.2716C27.8745 13.5806 29.2596 14.216 30.4055 15.1402ZM37.4522 33.2163C37.3954 33.0503 37.2628 32.7941 37.1681 32.647C36.5712 31.7458 33.3645 29.2362 31.7635 28.4155C30.8493 27.9459 30.172 27.7894 29.6699 27.9364C29.1299 28.0883 28.8457 28.3396 27.941 29.4639C27.5763 29.9146 27.2021 30.3368 27.1026 30.4032C26.8563 30.574 26.3732 30.7116 26.0321 30.7116C25.2411 30.7068 23.8059 30.1945 22.7022 29.5208C21.8449 28.9991 20.746 28.0645 19.9029 27.1395C18.9081 26.0531 18.2308 25.0949 17.6955 24.0133C17.004 22.6233 16.8288 21.7741 17.1177 21.1527C17.1887 20.9961 17.2835 20.8301 17.326 20.7779C17.3687 20.7305 17.814 20.3652 18.3065 19.9667C19.2729 19.1982 19.4292 19.0227 19.6091 18.4961C19.8365 17.8272 19.775 17.1441 19.4244 16.4563C19.1544 15.9344 18.4487 14.7959 17.9371 14.0606C17.2598 13.0929 15.5735 11.0246 15.2372 10.7446C14.6309 10.2513 13.8541 10.1659 12.9967 10.498C12.0921 10.8491 10.3963 12.2153 9.67156 13.1688C9.0179 14.0322 8.76693 14.6441 8.729 15.4506C8.69587 16.1147 8.75269 16.3898 9.10321 17.239C11.8458 23.8994 15.9382 29.2172 21.5607 33.4393C24.4974 35.6452 27.5431 37.3245 30.7025 38.4726C32.545 39.1414 33.3455 39.1746 34.2881 38.6244C34.686 38.3871 35.6712 37.3767 36.2207 36.6414C37.1301 35.4175 37.4665 34.853 37.5612 34.4023C37.6275 34.094 37.5754 33.5579 37.4522 33.2163ZM36.2411 18.2005C36.8181 19.7035 37.0948 21.0515 37.1555 22.6949C37.1651 23.0196 37.1606 23.6144 37.1396 24.0174C37.0958 24.7898 37.0539 24.9432 36.8315 25.1476C36.4741 25.483 35.7774 25.403 35.5132 24.9989C35.3752 24.782 35.3559 24.6232 35.3825 23.7208C35.4592 21.0513 34.9193 18.9611 33.6187 16.8711C32.0645 14.3637 29.7398 12.6745 26.7168 11.8482C25.9459 11.6378 25.2962 11.5096 24.2858 11.3736C23.6276 11.2875 23.4835 11.251 23.321 11.151C22.8303 10.8367 22.8238 10.0409 23.313 9.72178C23.5654 9.55334 23.7516 9.54582 24.5744 9.6512C26.9872 9.95271 29.1402 10.6697 30.9093 11.7531C32.1773 12.5306 32.9769 13.2292 34.0062 14.4526C35.095 15.7574 35.6715 16.7222 36.2411 18.2005Z"/>
</svg>

<svg width="48" height="48" xmlns="http://www.w3.org/2000/svg"><path fill-rule="evenodd" clip-rule="evenodd" d="M24 0c13.255 0 24 10.745 24 24S37.255 48 24 48 0 37.255 0 24 10.745 0 24 0zm6.394 20.958c-.117-.948-.408-1.692-.926-2.352-.672-.85-1.53-1.358-2.802-1.66-.83-.2-1.164-.178-1.464.096-.279.257-.334.771-.12 1.104.15.242.323.328.804.423.642.118 1.085.27 1.488.501.855.494 1.253 1.267 1.296 2.518.02.588.07.769.276.977.38.381 1.057.307 1.344-.149.106-.172.122-.247.133-.646a6.33 6.33 0 00-.029-.812zm.012-5.818c2.033 1.645 3.17 3.982 3.339 6.888.07 1.144-.024 1.517-.427 1.729a.862.862 0 01-1.06-.164c-.188-.193-.26-.456-.258-.923.009-1.29-.288-2.73-.772-3.73a7.204 7.204 0 00-2.51-2.876c-.953-.636-2.213-1.065-3.435-1.172-.793-.07-1.076-.204-1.228-.584-.095-.227-.07-.62.04-.796a1.09 1.09 0 01.506-.39c.175-.05 1.2.039 1.755.15 1.518.309 2.904.944 4.05 1.868zm7.046 18.076a3.194 3.194 0 00-.284-.569c-.597-.901-3.803-3.41-5.404-4.231-.915-.47-1.592-.627-2.094-.48-.54.152-.824.404-1.729 1.528-.365.45-.739.873-.838.94-.247.17-.73.308-1.07.308-.792-.005-2.227-.517-3.33-1.191-.858-.522-1.957-1.457-2.8-2.381-.995-1.087-1.672-2.045-2.207-3.127-.692-1.39-.867-2.239-.578-2.86a2.3 2.3 0 01.208-.375c.043-.047.488-.413.98-.811.967-.769 1.123-.944 1.303-1.47.227-.67.166-1.353-.185-2.04-.27-.523-.975-1.661-1.487-2.396-.677-.968-2.364-3.036-2.7-3.316-.606-.494-1.383-.58-2.24-.247-.905.351-2.6 1.717-3.325 2.67-.654.864-.905 1.476-.943 2.283-.033.664.024.939.374 1.788 2.743 6.66 6.835 11.978 12.458 16.2 2.936 2.206 5.982 3.886 9.142 5.034 1.842.668 2.643.702 3.585.151.398-.237 1.383-1.247 1.933-1.983.91-1.224 1.246-1.788 1.34-2.239.066-.308.014-.844-.109-1.186zm-1.21-15.015c.576 1.502.853 2.85.914 4.494.01.325.005.92-.016 1.322-.044.773-.086.926-.309 1.13-.357.336-1.054.256-1.318-.148-.138-.217-.157-.376-.13-1.278.076-2.67-.464-4.76-1.764-6.85-1.554-2.507-3.88-4.196-6.902-5.023-.771-.21-1.42-.338-2.431-.474-.658-.087-.803-.123-.965-.223-.49-.314-.497-1.11-.008-1.43.252-.168.439-.175 1.261-.07 2.413.302 4.566 1.019 6.335 2.102 1.268.778 2.068 1.476 3.097 2.7 1.089 1.304 1.666 2.27 2.235 3.748z"/></svg>
